2af
albertroad.htmlalbertroad.htmlalbertroad.htmlalbertroad.htmlalbertroad.htmlalbertroad.htmlalbertroad.htmlalbertroad.htmlalbertroad.htmlFrom <I>Altan: The Red Crow</I>
albertroad.htmlalbertroad.html

T:Yellow Tinker, The
M:4/4
L:1/8
R:reel
D:Altan: The Red Crow
Z:Devin McCabe
K:ADor
EAAG EGDG|EA A/2A/2A fAeA|EAAG EDEF|1G2BG cGBG:|2GABc dBGB||
!A2 eA fAeA|fAeA dBGB|A2eA fAe^c|d2BG DGBG|
!A2 eA fAeA|fAeA dBGB|e3f gffe|d2BG DGBG||

%  ABC2Win Version 2.1 8/14/2000



albertroad.htmlalbertroad.htmlalbertroad.htmlalbertroad.htmlalbertroad.htmlalbertroad.html
0

